X: 29032
T: Ned Kelly's
R: polka
M: 2/4
K: Dmajor
|:F2 ED|FA A>B|AF ED|B2 BA|
F2 ED|FA d>c|BA FE|1 ED DE:|2 ED D2||
|:A2 d>f|ed d>B|Ad fd|e2 dB|
A2 d>f|ed d>B|BA FE|1 ED D2:|2 ED DE||

